X:116
T: DER HIMMEL IST SO TRUEBE
N: E0709A
O: Europa, Mitteleuropa, Deutschland, Hessen, Lahn - Kreis
R: Liebes - Lied, Leid, Klage
M: 4/4
L: 1/8
K: G
D2 | G3AB2c2 | d3ed2
G2 | e3ed2c2 | B4z2
GB | d3Bdedc | B2e2d2
dc | B2B2A2dc | B4z2

